!!!!SEGMENT: artfugue-008.krn
!!!COM: Bach, Johann Sebastian
!!!CDT: 1685/03/31-1750/07/28
!!!OPR@@DE: Die Kunst der Fuge
!!!OPR@EN: The Art of the Fugue
!!!OTL: Contrapunctus 8, a 3.
!!!SCA: BWV 1080
!!!voices: 4
!!!AGN: Triple fugue
**kern	**kern	**kern
*part3	*part2	*part1
*staff3	*staff2	*staff1
*I"	*I"	*I"
*clefF4	*clefC3	*clefC1
*mclefF4	*mclefGv2	*mclefG2
*k[b-]	*k[b-]	*k[b-]
*d:	*d:	*d:
*M2/2	*M2/2	*M2/2
*met(c|)	*met(c|)	*met(c|)
*mmet(c|)	*mmet(c|)	*mmet(c|)
*MM100	*MM100	*MM100
=1	=1	=1
1r	2r	1r
.	2d	.
=2	=2	=2
1r	4c	1r
.	4f	.
.	4Bn	.
.	4B-X	.
=3	=3	=3
1r	4A	1r
.	4d	.
.	2GWW	.
=4	=4	=4
1r	4F	1r
.	4G	.
.	8AL	.
.	8GJ	.
.	4A	.
=5	=5	=5
1r	4D	1r
.	(4d	.
.	4c	.
.	4Bn)	.
=6	=6	=6
2r	4c	1r
.	(4f	.
2A	4e	.
.	4d#X)	.
=7	=7	=7
4G	2e	1r
4c	.	.
4F#X	8r	.
.	8dnL	.
4Fn	8c	.
.	8BnJ	.
=8	=8	=8
4E	2c	1r
4A	.	.
2DWW	8r	.
.	8BnL	.
.	8A	.
.	8G#XJ	.
!!LO:LB:g=original
=9	=9	=9
4C	8AL	1r
.	8c	.
4D	8Bn	.
.	8dJ	.
8EL	8G#XL	.
8DJ	8f	.
4E	8e	.
.	8dJ	.
=10	=10	=10
4AA	8cL	1r
.	8Bn	.
(4G	8c	.
.	8eJ	.
4F	8aL	.
.	8d	.
4E)	8c#X	.
.	8eJ	.
=11	=11	=11
4F	8dL	2r
.	8f	.
(4B-	8e	.
.	8gJ	.
4A	8fL	2dd
.	8c	.
4G#X)	8Bn	.
.	8fJ	.
=12	=12	=12
2A	4e	4cc
.	4c	4ff
8r	4d	4bn
8GnL	.	.
8F	4g	4b-X
8EJ	.	.
=13	=13	=13
2F	4c	4a
.	4A	4dd
8r	4Bn	2gWW
8EL	.	.
8D	4e	.
8C#XJ	.	.
=14	=14	=14
2D	8AL	4f
.	8c	.
.	8B-X	4g
.	8dJ	.
8r	[2c/	8aL
8CnL	.	8gJ
8BB-	.	4a
8AAJ	.	.
!!LO:LB:g=original
=15	=15	=15
2BB-	8cL]	4d
.	8B-	.
.	8A	(4dd
.	8GJ	.
2C	8AL	4cc
.	8F	.
.	8G	4b-)
.	8EJ	.
=16	=16	=16
8FFL	8FL/	4a
8AA	8cc\	.
8GG	8b-	(4ff
8FFJ	8aJ	.
8GGL	8b-L	4ee
8EE	8g	.
8FF	8a	4dd)
8DDJ	8fJ	.
=17	=17	=17
8AAL	4e	2cc#X
8G	.	.
8F	4b-	.
8EJ	.	.
8FL	4a	4r
8D	.	.
8E	4g	(8cc#L
8C#XJ	.	16ddL
.	.	16eeJJ)
=18	=18	=18
1D	4f	8aL
.	.	8dd
.	4E	8ccn
.	.	8b-J
.	4F#X	8ccL
.	.	8a
.	[>4G	8b-
.	.	8gJ
=19	=19	=19
4C#X	8GL]	[1a
.	8g	.
4A	8f	.
.	8eJ	.
4D	8fL	.
.	8d	.
4F	8e	.
.	8c#XJ	.
=20	=20	=20
4BB-	[1d	8aL]
.	.	8a
4AA	.	8g
.	.	8fJ
4BB-	.	8gL
.	.	8e
4GG	.	8f
.	.	8ddJ
!!LO:LB:g=original
=21	=21	=21
8AAL	4d]	4fM
8A	.	.
8G	4c#X	4e
8FJ	.	.
8GL	2a	8r
8E	.	8cc#X
8F	.	[4dd
8DJ	.	.
=22	=22	=22
2E	4g	8ddL]
.	.	8bn
.	4cc	8a
.	.	8gJ
4D	4f#X	8aL
.	.	8ccJ
4G	4fn	[4bn
=23	=23	=23
4C#X	4e	8bL]
.	.	8g#X
4Cn	4a	8f#X
.	.	8eJ
4BBn	2dWW	8f#L
.	.	8a
4E	.	8g#
.	.	8bnJ
=24	=24	=24
2AA	4c	8aL
.	.	8cc
.	4d	8bn
.	.	8ddJ
4r	8eL	[2cc
.	8dJ	.
8AL	4e	.
8GJ	.	.
=25	=25	=25
4F#X	4A	8ccL]
.	.	8ee-X
4D	4F#X	8dd
.	.	8ccJ
4E	4G	8ddL
.	.	8b-
4F#	[4A	8cc
.	.	8aJ
=26	=26	=26
4GG	8AL]	[1b-
.	8a	.
4AA	8g	.
.	8f#XJ	.
4BB-	8gL	.
.	8e	.
4GG	8fn	.
.	8dJ	.
!!LO:LB:g=original
=27	=27	=27
4C	4e	8b-L]
.	.	8dd
4D	4f	8cc
.	.	8b-J
4E	4g	8ccL
.	.	8a
4C	4e	8b-
.	.	8gJ
=28	=28	=28
8FFL<	4f	4a
8G	.	.
8F	4a	4dd
8EJ	.	.
8FL	8r	4g#X
8D	8BnL	.
8E	8c#X	4gn
8C#XJ	8eJ	.
=29	=29	=29
8DL	4A	4f
8E-X	.	.
8D	4f	4b-
8CnJ	.	.
8DL	8r	4e
8BB-	8GL	.
8C	8A	4e-X
8AAJ	8cJ	.
=30	=30	=30
8BB-L	4F	4d
8C	.	.
8BB-	4d	4g/
8AAJ	.	.
8BB-L	8r	4c#X
8GG	8EL	.
8AA	8F#X	[4cn
8FF#XJ	8AJ	.
=31	=31	=31
[1GG	4D	8cL]
.	.	8c
.	4F#X	8B-
.	.	8AJ
.	4G	8B-L
.	.	8d
.	4A	8c
.	.	8e-XJ
=32	=32	=32
1GG_	4B-	8dL
.	.	8a
.	4A	8g
.	.	8f#XJ
.	4B-	8gL
.	.	8b-
.	4c	8a
.	.	8ccJ
!!LO:LB:g=original
=33	=33	=33
8GGL]	8dL	[2b-
8AA	8f	.
8GG	8e	.
8FFJ	8dJ	.
8GGL	4c#X	8b-L]
8EE	.	8g
8FF	4d	8a
8DDJ	.	8fJ
=34	=34	=34
8CC#XL	8eL	2g
8BB-	8d	.
8AA	8c#X	.
8GGJ	8BnJ	.
8AAL	4c#	4r
8FF	.	.
8GG	4e	4cc#X
8EEJ	.	.
=35	=35	=35
4FF	4a	8ddL
.	.	8g
!!LO:MO:ori
*	*clefF4	*
!!LO:MO:end
4AA	4C#X	8f
.	.	8eJ
2D	4D	8fL
.	.	8a
.	4B-	8g
.	.	8b-J
=36	=36	=36
4C	4E	8aL
.	.	8e
4F	2A	8d
.	.	8c#XJ
4BBn	.	8dL
.	.	8f
4BB-X	4G	8e
.	.	8gJ
=37	=37	=37
4AA	4C	8fL
.	.	8c
4D/	2F	8Bn
.	.	8AJ
2GGWW	.	8BL
.	.	8d
.	4E	8c#X
.	.	8eJ
=38	=38	=38
4FF	2A	8dL
.	.	8f
4GG	.	8e
.	.	8gJ
8AAL	4r	8fL
8GGJ	.	8e
4AA	4G	8d
.	.	8c#XJ
!!LO:LB:g=original
=39	=39	=39
.	(8qqG/	(8qqc#X/
2DD	2F)	2d)
!!LO:MO:ori
*	*clefC3	*
!!LO:MO:end
2r	4r	2dd
.	[4b-	.
=40	=40	=40
1r	8b-L]	4cc
.	8g#X	.
.	8a	4ff
.	8aJ	.
.	8aL	4bn
.	8f#X	.
.	8gn	4b-X
.	8gJ	.
=41	=41	=41
1r	8gL	4a
.	8e	.
.	8fn	4dd
.	8fJ	.
.	8fL	2gWW
.	8e	.
.	8d	.
.	8c#XJ	.
=42	=42	=42
8r	2.d	4f
8B-L	.	.
8A	.	4g
8GJ	.	.
8F#XL	.	8aL
8G	.	8gJ
8E	[4cn	4a
8F#J	.	.
=43	=43	=43
4G	8cL]	2d
.	8c	.
4D	8B-	.
.	8AJ	.
2G	8B-L>	4r
.	8d	.
.	8c	[4ee-X
.	8B-J	.
=44	=44	=44
4F	4A	8ee-L]
.	.	8cc#X
4B-	4r	8dd
.	.	8ddJ
4E	2g	8ddL
.	.	8bn
4E-X	.	8ccn
.	.	8ccJ
!!LO:LB:g=original
=45	=45	=45
4D	4f	8ccL
.	.	8a
4G	4d	8b-X
.	.	8b-J
2CWW	[2e-X	8b-L
.	.	8a
.	.	8g
.	.	8f#XJ
=46	=46	=46
4BB-	8e-L]	2.g
.	8d	.
4C	8c	.
.	8B-J	.
8DL	8AL	.
8CJ	8B-	.
4D/	8G	[4fn
.	8AJ	.
=47	=47	=47
2GG	4Bn	8fL]
.	.	8g
.	2c	8f
.	.	8e-XJ
4r	.	8dL
.	.	8e-
4G	[4B-X	8c
.	.	8dJ
=48	=48	=48
2C	8B-L]	8enL
.	8A	8cc
.	8G	8b-
.	8FJ	8aJ
4r	8EL	8gL
.	8F	8a
4C	8D	8f
.	8EJ	8gJ
=49	=49	=49
2FF	4F	8aL
.	.	8g
.	4r	8f
.	.	8eJ
4r	2a	8dL
.	.	8e
[4F	.	8c
.	.	8dJ
=50	=50	=50
8FL]	4g	4Bn
8D#X	.	.
8E	4cc	4g
8EJ	.	.
8EL	4f#X	4a
8C#X	.	.
8Dn	4fn	4b-X
8DJ	.	.
!!LO:LB:g=original
=51	=51	=51
8DL	4e	4g#X
8BBn	.	.
8Cn	4a	4ee
8CJ	.	.
8CL	2d	2r
8BBn	.	.
8AA	.	.
8GG#XJ	.	.
=52	=52	=52
2AA	4c	8r
.	.	8eeL
.	4d	8dd
.	.	8ccJ
4r	8eL	8bnL
.	8dJ	8cc
[4G	4e	8a
.	.	8bJ
=53	=53	=53
8GL]	2A	4cc#X
8F	.	.
8E	.	4dd
8DJ	.	.
8C#XL	4r	8eeL
8D	.	8ddJ
8BBn	[4G	4ee
8C#J	.	.
=54	=54	=54
2D	8GL]	4a
.	8F	.
.	8G	8b-L
.	8AJ	8aJ
4r	8B-L	8gL
.	8A	8fJ
4E	8c	[4g/
.	8B-J	.
=55	=55	=55
4F	2A	8gL]
.	.	8c
8FFL	.	8d
8GGJ	.	8eJ
4AA	4r	8fL
.	.	8e
4BBn	[4d	8g
.	.	8fJ
=56	=56	=56
4C	8dL]	2e
.	8G	.
4BB-X	8A	.
.	8B-J	.
4AA	8cL>	4r
.	8B-	.
4F#X	8d	[4a
.	8cJ	.
!!LO:LB:g=original
=57	=57	=57
8GGL	2B-	8aL]
8Fn	.	8d
8E	.	8e
8DJ	.	8fJ
8C#XL	4r	8gL>
8D	.	8f
8BBn	[4e	8a
8C#J	.	8gJ
=58	=58	=58
8DL	8eL]	2f
8E	8c#X	.
8F	8d	.
8GJ	8eJ	.
8AL	8fL	4r
8G	8e	.
8B-	8g	[4dd
8AJ	8fJ	.
=59	=59	=59
8GL	2e	4dd]
8F	.	.
8A	.	2cc
8GJ	.	.
8FL	2d	.
8E	.	.
8G	.	[4b-
8FJ	.	.
=60	=60	=60
8EL	4c	4b-]
8F	.	.
8G	2f	4a
8AJ	.	.
8B-L	.	2g
8A	.	.
8c	4e	.
8B-J	.	.
=61	=61	=61
8AL	2f	8fL
8G	.	8cc
8F	.	8dd
8EJ	.	8eeJ
8DL	4r	2ff
8A	.	.
8C	[4dd	.
8BBnJ	.	.
=62	=62	=62
[1C	8ddL]	4ee
.	8bn	.
.	8cc	4aa
.	8ccJ	.
.	8ccL	4dd
.	8a	.
.	8b-X	4dd-X
.	8b-J	.
!!LO:LB:g=original
=63	=63	=63
2C]	8b-L	4cc
.	8g#X	.
.	8a	4ff
.	8aJ	.
4r	8aL	2b-ww
.	8gn	.
4C#X	8f	.
.	8eJ	.
=64	=64	=64
8DL	2.f	4a
8d	.	.
8cn	.	4b-
8B-J	.	.
8AL	.	8ccL
8B-	.	8b-J
8G	[4e-X	4cc
8AJ	.	.
=65	=65	=65
8B-L	8e-L]	4f
8A	8d	.
8G	8en	4r
8FJ	8fJ	.
8EL	8gL	4r
8F	8fJ	.
8D	4g	[4b-
8EJ	.	.
=66	=66	=66
8FL	4c	8b-L]
8E	.	8a
8D	8dL	8bn
8CJ	8eJ	8ccJ
8BBnL	8fL	8ddL
8C	8eJ	8ccJ
8AA	4f	4dd
8BBJ	.	.
=67	=67	=67
8CL	4e	8gL
8D	.	8bn
8E	4r	8cc
8FJ	.	8ddJ
8GL	4r	8eeL
8A	.	8ff
8B-X	4d	8gg
8GJ	.	8ggJ
=68	=68	=68
4A	4c	8ggL
.	.	8ee
4d	4a	8ff
.	.	8ffJ
4G	4b-	8ffL
.	.	8dd
4G-X	4B-	8ee-X
.	.	8ee-J
!!LO:LB:g=original
=69	=69	=69
4F	4A	8ee-XL
.	.	8cc#X
4B-	4f	8dd
.	.	8ddJ
2E-Xww	4g	8ddL
.	.	8ccn
.	4G	8b-
.	.	8aJ
=70	=70	=70
4D	8FL<	8b-L
.	8f	8fJ
4E-X	8e-X	2b-
.	8dJ	.
8FL	8cL	.
8E-J	8d	.
4F	8B-	4a
.	8cJ	.
=71	=71	=71
4BB-	4d	8b-L
.	.	8ff
2B-	4r	8ee-X
.	.	8ddJ
.	2r	8ccL
.	.	8dd
4A	.	8b-
.	.	8ccJ
=72	=72	=72
8B-L	4r	4dd
8G	.	.
8A	4b-	2gg
8B-J	.	.
8cL	2a	.
8B-	.	.
8d	.	4ff#X
8cJ	.	.
=73	=73	=73
4B-	4d	8ggL
.	.	8dd
4e-X	2g	8cc
.	.	8b-J
4c	.	8aL
.	.	8b-
4d	4f#X	8g
.	.	8aJ
=74	=74	=74
4G	8gL	2b-
.	8d	.
4E-X	8g	.
.	8gJ	.
4C#X	8gL	2a
.	8en	.
4D	8fn	.
.	8fJ	.
!!LO:LB:g=original
=75	=75	=75
4BBn	8fL	4dd
.	8d	.
4C	8e-X	4g
.	8e-J	.
4AA	8e-L	2f
.	8c#X	.
4BB-X	8d	.
.	8dJ	.
=76	=76	=76
4GG	8dL	2e-X
.	8Bn	.
4AA-X	8cn	.
.	8cJ	.
4FF#X	8cL	4d
.	8B-X	.
[4GG	8A	4e-X
.	8GJ	.
=77	=77	=77
8GGL]	2A	4c#X
8EE	.	.
8FFn	.	4d
8FFJ	.	.
8FFL	4Bn	[2g/
8DD	.	.
8EE	4c#X	.
8EEJ	.	.
=78	=78	=78
4DD	8dL	8gL]
.	8AJ	8e
4r	[4d	8f
.	.	8fJ
2r	8dL]	4e
.	8Bn	.
.	8cn	4a
.	8cJ	.
=79	=79	=79
4r	8cL	4.dd
.	8A	.
[4G	8B-X	.
.	8B-J	8ee
8GL]	4A	4cc#X
8E	.	.
8F	4a	4dd
8FJ	.	.
=80	=80	=80
8FL	4g	4bn
8D#X	.	.
8E	4cc	4ccn
8EJ	.	.
8EL	4f#X	4r
8C#X	.	.
8Dn	4fn	4b-X
8DJ	.	.
!!LO:LB:g=original
=81	=81	=81
8DL	4e	4g#X
8BBn	.	.
8C	4a	4a
8CJ	.	.
8CL	4d	4r
8BB	.	.
8AA	[4bn	4dd
8GG#XJ	.	.
=82	=82	=82
2AA	8bL]	4cc
.	8g#X	.
.	8a	4ff
.	8aJ	.
4r	8aL	4bn
.	8f#X	.
4D	8gn	4b-X
.	8gJ	.
=83	=83	=83
4C#X	8gL	4a
.	8e	.
4Cn	8fn	4dd
.	8fJ	.
4BBn	8fL	2gWW
.	8e-X	.
[4C	8d	.
.	8cJ	.
=84	=84	=84
8CL]	2d	4f#X
8BB-X	.	.
8AA	.	4g
8GGJ	.	.
8FF#XL	4r	8aL
8GG	.	8gJ
8EE	[4c	4a
8FF#J	.	.
=85	=85	=85
4GG	4c]	8dL
.	.	8e
2G	4B-	8f#X
.	.	8gJ
.	4c	(8aL
.	.	8g)
4F#X	4d	(8b-
.	.	8aJ)
=86	=86	=86
4G	4G	(8ccL
.	.	8bn)
4Fn	4Bn	(8dd
.	.	8cc#XJ)
4E	4c#X	(8eeL
.	.	8dd)
4D	4d	(8ff
.	.	8eeJ)
!!LO:LB:g=original
=87	=87	=87
8C#XL	4A	8ggL
8B-	.	8dd
8A	4r	8cc#X
8GJ	.	8eeJ
8FL	4r	4a
8G	.	.
8E	4cc#X	4gg
8FJ	.	.
=88	=88	=88
8DL	4dd	4ff
8E	.	.
8C	4r	4aa
8DJ	.	.
8BB-L	4r	8ddL
8C	.	8ee
8AA	4ccn	8ff
8BB-J	.	8ffJ
=89	=89	=89
4GG	8b-L	8ffL
.	8b-	8dd#X
4C	8b-	8ee
.	8gJ	8eeJ
4FF#X	8aL	8eeL
.	8a	8cc#X
4FFn	8a	8ddn
.	8fJ	8ddJ
=90	=90	=90
4EE	8gL	8ddL
.	8g	8bn
4AA	8g	8ccn
.	8eJ	8ccJ
4DD	4f	8ccL
.	.	8a
16GLL	8dL	8b-X
16F	.	.
16E	8gJ	8b-J
16DJJ	.	.
=91	=91	=91
16C#XLL	4e	8b-L
16D	.	.
16E	.	8g
16FJJ	.	.
16ELL	4r	8cc#X
16D	.	.
16C#X	.	8cc#J
16BBnJJ	.	.
16AALL	4r	8cc#L
16BB	.	.
16C#	.	8g
16DJJ	.	.
16C#LL	8gL	8ee
16BB	.	.
16AA	8gJ	8eeJ
16GGJJ	.	.
!!LO:LB:g=original
=92	=92	=92
4FF	8gL	8eeL
.	8eJ	8cc#XJ
16r	4f	4dd
16DDLL	.	.
32EEL	.	.
32FF	.	.
32GG	.	.
32AAJJJ	.	.
2BB-www	4r	16r
.	.	16ccnLL
.	.	16b-
.	.	16aJJ
.	4g	16gLL
.	.	16ff
.	.	16ee
.	.	16ddJJ
=93	=93	=93
8AAL	2a	2cc#X
8A	.	.
8G	.	.
8FJ	.	.
8EL	2r	8r
8F	.	8aL
8D	.	8bn
8EJ	.	8cc#J
=94	=94	=94
2F	4r	(8ddL
.	.	8cc#X)
.	4a	(8ee
.	.	8ddJ)
8r	4d	4ff
8EL	.	.
8D	4e	[4b-
8C#XJ	.	.
=95	=95	=95
2D	4r	8b-L]
.	.	8a
.	4f	8dd
.	.	8ccJ
8r	4g	8ee-XL
8CnL	.	8dd
8BB-	4a	8f#X
8AAJ	.	8ccJ
=96	=96	=96
4GG	4r	8b-L
.	.	8dd
4G	4b-	8ee-X
.	.	8ggJ
4A	4a	8ffL
.	.	8dd
4AA	4g	8een
.	.	8cc#XJ
!!LO:LB:g=original
=97	=97	=97
2BB-	4r	8cc#XL
.	.	8ddJ
.	8fL	4d
.	8eJ	.
8r	4f	4dd
8B-L	.	.
8A	4g	4ee
8GJ	.	.
=98	=98	=98
8GL	2a	4cc#X
8E	.	.
8F	.	4dd
8FJ	.	.
8FL	4bn	[2gg
8D	.	.
8E	4cc#X	.
8EJ	.	.
=99	=99	=99
4D	4dd	8ggL]
.	.	8ee
4d	[4a	8ff
.	.	8ffJ
4A	8aL]	[2ff
.	8f	.
4Bn	8g	.
.	8gJ	.
=100	=100	=100
4r	4g	8ffL]
.	.	8ee
4c	4e	8aa
.	.	8aaJ
!!LO:MO:ori
*	*clefC1	*
!!LO:MO:end
4d	8r	4aa
.	8ffL	.
4e	8ee	4gg#X
.	8ddJ	.
=101	=101	=101
4r	8ccL	4aa
.	8bnJ	.
4f	[4a	8ddL
.	.	8bnJ
4e	8a]	4cc
.	4a	.
4d	.	4b
.	8g#X	.
=102	=102	=102
4r	8aL	4a
.	8e	.
8cL	8a	4r
8BnJ	8g#XJ	.
4c	8aL	2r
.	8cc	.
4d	8bn	.
.	8ddJ	.
!!LO:LB:g=original
=103	=103	=103
[1e	8ccL	4r
.	8eeJ	.
.	4a	8cccL
.	.	8aaJ
.	4dd	8bbnL
.	.	8gg#X
.	4cc	8aa
.	.	8ff#XJ
=104	=104	=104
4e]	4bn	8gg#XL
.	.	8eeJ
8G#XL	8ddL	4r
8fJ	8bJ	.
8AL	8ccL	2r
8e	8a	.
8Bn	8b	.
8dJ	8g#XJ	.
=105	=105	=105
8cL	4.a	4r
8BnJ	.	.
[4c	.	4ee
.	8g	.
8cL]	4f#X	4a
8B	.	.
8A	[4fn	4bn
8G#XJ	.	.
=106	=106	=106
4.A	8fL]	4r
.	8dJ	.
.	4e	4cc
8Gn	.	.
8FL	4r	4dd
8E	.	.
8D	[4a	4ee
8CJ	.	.
=107	=107	=107
4BBn	8aL]	4r
.	8g#X	.
4EE	8dd	4ff
.	8g#J	.
4FF#X	8aL	4ee
.	8cc	.
4GG#X	8bn	4dd
.	8fJ	.
=108	=108	=108
4.AA	8eL	4r
.	8d#XJ	.
.	4e	8ccL
8GG#X	.	8bnJ
8AAL	2r	4cc
8C	.	.
8BBn	.	4dd
8DJ	.	.
!!LO:LB:g=original
=109	=109	=109
2C	8r	[1ee
.	8eL	.
.	8g#X	.
.	8bnJ	.
4r	8aL	.
.	8f#X	.
4C#X	8gn	.
.	8eJ	.
=110	=110	=110
4D	4fn	8eeL]
.	.	8a
4AA	4f#X	8cc
.	.	8ee-XJ
4BB-	4.g	8ddL
.	.	8b-
4D	.	8cc
.	8f#	8aJ
=111	=111	=111
8GGL	4g	4b-
8D	.	.
8G	8r	8r
8B-J	8dd	8gg
8AL	8ccL	4ff#X
8c	8a	.
8Bn	8dd	4ffn
8dJ	8a-XJ	.
=112	=112	=112
8E-XL	4g	8r
8G	.	8ee-XL
8F	[4a-X	8dd
8A-XJ	.	8ccJ
8BBnL	8a-L]	4dd
8D	8g	.
8C	8f#X	[4ee-X
8E-XJ	8gJ	.
=113	=113	=113
8FF#XL	4an	8ee-L]
8AA	.	8dd
8GG	4b-	8cc#X
8BB-J	.	8ddJ
!!LO:MO:ori
*	*clefC3	*
!!LO:MO:end
2CC#X	4r	8eenL
.	.	8ff#X
.	4b-	8gg
.	.	8ggJ
=114	=114	=114
[1DD	4a	8ggL
.	.	8ee
.	4dd	8ffn
.	.	8ffJ
.	4g#X	8ffL
.	.	8dd
.	4gn	8ee-X
.	.	8ee-J
!!LO:LB:g=original
=115	=115	=115
1DD_	4f	8ee-XL
.	.	8cc#X
.	4b-	8dd
.	.	8ddJ
.	4e	8ddL
.	.	8bn
.	4e-X	8ccn
.	.	8ccJ
=116	=116	=116
1DD_	4d	8ccL
.	.	8a
.	4g	8b-X
.	.	8b-J
.	4c#X	8b-L
.	.	8g
.	4cn	8a-X
.	.	8a-J
=117	=117	=117
4DD]	4Bn	8a-XL
.	.	8f#XJ
8DL	4B-X	2g
8DJ	.	.
8DL	2AWW	.
8BBn	.	.
8C	.	4f#
8CJ	.	.
=118	=118	=118
8CL	4G	2g
8AA	.	.
8BB-X	8dL	.
8GGJ	8dJ	.
4D	8dL	8f#XL
.	8B-	8gJ
4DD	8c	[4a
.	8cJ	.
=119	=119	=119
[4GG	8cL	4a]
.	8A	.
16GGLL]	8B-	8gL
16AA	.	.
16BB-	8B-J	8gJ
16CJJ	.	.
4D	4A	8gL
.	.	8e
(16CLL	8dL	8f
16BBn	.	.
16AA	8dJ	8fJ
16GGJJ)	.	.
=120	=120	=120
4C	8dL	4e-X
.	8Bn	.
(16GGLL	8c	8aL
16FF#X	.	.
16EE	8cJ	8aJ
16DDJJ)	.	.
4GG	4B-X	8aL
.	.	8g
(16GLL	8gL	8b-
16Fn	.	.
16E	8gJ	8b-J
16DJJ)	.	.
!!LO:LB:g=original
=121	=121	=121
4C#X	8gL	4a
.	8e	.
(16DLL	8f	8ddL
16Cn	.	.
16BBn	8fJ	8ddJ
16AAJJ)	.	.
4GG#X	4e	8ddL
.	.	8bn
(16AALL	8aL	8cc
16GGn	.	.
16FF	8aJ	8ccJ
16EEJJ)	.	.
=122	=122	=122
!!LO:MO:ori
*	*clefC1	*
!!LO:MO:end
4DD	(8aL	4bn
.	8g#X)	.
4CC	(8bn	4ee
.	8aJ)	.
4DD	(8ccL	4ff#X
.	8b)	.
4EE	(8dd	4gg#X
.	8ccJ)	.
=123	=123	=123
4FF	(8eeL	4aa
.	8dd)	.
4DD	(8ff	4bbn
.	8eeJ)	.
4EE	8ddL	4ee
.	8cc	.
4E	8bn	4gg#X
.	8ccJ	.
=124	=124	=124
8AAL	2a	2aa
8E	.	.
8A	.	.
8AJ	.	.
8AL	2r	2r
8F	.	.
8G	.	.
8GJ	.	.
=125	=125	=125
8GL	2r	4r
8E	.	.
8F	.	8aaL
8FJ	.	8aaJ
!!LO:MO:ori
*	*clefC3	*
!!LO:MO:end
8FL	2d	8aaL
8DJ	.	8ff
4B-	.	8gg
.	.	8ggJ
=126	=126	=126
4A	4c	8ggL
.	.	8ee
4d	4f	8ff
.	.	8ffJ
4G#X	4Bn	8ffL
.	.	8ee
4Gn	4B-X	8dd
.	.	8cc#XJ
!!LO:LB:g=original
=127	=127	=127
4F	4A	8ddL
.	.	8ff
4B-	4d	8ee
.	.	8ddJ
[2E	2GWW	8cc#XL
.	.	8dd
.	.	8bn
.	.	8cc#J
=128	=128	=128
4E]	4F	8ddL
.	.	8a
[2D	4G	8b-X
.	.	8gJ
.	8AL	4e
.	8GJ	.
8DL]	4A	[4g/
8C#XJ	.	.
=129	=129	=129
4D	4D	8gL]
.	.	8g
4r	4d	8f
.	.	8eJ
2r	4c	8f#XL
.	.	8dd
.	4Bn	8g#X
.	.	[8bnJ
=130	=130	=130
1r	4c	8bL]
.	.	8bn
.	4f	8a
.	.	8g#XJ
.	4e	8aL
.	.	8ff
.	4d	8bn
.	.	[8ddJ
=131	=131	=131
2r	4e	8ddL]
.	.	8dd
.	4a	8cc
.	.	8bnJ
2A	4g	8cc#XL
.	.	8aa
.	[4f	8dd
.	.	8ffJ
=132	=132	=132
4G	8fL]	4bn
.	8d#X	.
4c	8e	4ee
.	8eJ	.
4F#X	8eL	4aa
.	8c#X	.
4Fn	8dn	4a
.	8dJ	.
!!LO:LB:g=original
=133	=133	=133
4E	8dL	4g
.	8Bn	.
4A	8cn	4cc
.	8cJ	.
2DWW	8cL	4ff
.	8B	.
.	8A	4f
.	8G#XJ	.
=134	=134	=134
4C	2.A	8eL
.	.	8ee
4D	.	8dd
.	.	8ccJ
8EL	.	8bnL
8DJ	.	8cc
4E	4G#X	8a
.	.	8bJ
=135	=135	=135
4AA	8AL	8ccL
.	8c	8ee
4r	8Bn	8dd
.	8AJ	8ffJ
4r	8G#XL	4ee
.	8A	.
4BBn	8F#X	[4dd
.	8G#J	.
=136	=136	=136
8CL	8AL	4dd]
8BBn	8eJ	.
8C	2a	4cc
8DJ	.	.
8EL	.	4bn
8D	.	.
8F	[4g	4cc#X
8EJ	.	.
=137	=137	=137
8FL	8gL]	8ddL
8DJ	8f	8a
2G	8e	8g
.	8dJ	8fJ
.	8c#XL	8eL
.	8d	8dJ
8FL	8Bn	4e
8EJ	8c#J	.
=138	=138	=138
4F	4d	8dL
.	.	8e
4A	4r	8f
.	.	8gJ
4F#X	4r	8aL
.	.	8g
4D	4F#X	8b-
.	.	8aJ
!!LO:LB:g=original
=139	=139	=139
2G	8GL	2b-
.	8A	.
.	8B-	.
.	8cJ	.
4r	8dL	2bnWW
.	8c	.
4G	8e	.
.	8dJ	.
=140	=140	=140
8CL	8eL	2cc
8c	8f	.
8B-	8g	.
8AJ	8aJ	.
8GL	8b-L	2r
8A	8a	.
8F	8cc	.
8GJ	8b-J	.
=141	=141	=141
8AL	4cc	8r
8B-	.	8ffL
8c	4r	8ee
8dJ	.	8ddJ
8eL	2r	8ccL
8d	.	8dd
8f	.	8b-
8eJ	.	8ccJ
=142	=142	=142
4f	8r	8aL
.	8aL	8cc
4B-	8g	8b-
.	8fJ	8aJ
4c	8eL	8gL
.	8f	8a
4C	8d	8f
.	8eJ	8gJ
=143	=143	=143
8FL	8fL	2a
8G	8cJ	.
8A	2f	.
8B-J	.	.
8cL	.	2g
8Bn	.	.
8d	[4e	.
8c#XJ	.	.
=144	=144	=144
8dL	4e]	2f
8BBn	.	.
8C#X	[4d	.
8DJ	.	.
8EL	8dL]	2e
8D	8Bn	.
8F	8c#X	.
8EJ	8eJ	.
!!LO:LB:g=original
=145	=145	=145
8GL	8AL	4d
8F	8Bn	.
8E	8c#X	4r
8DJ	8dJ	.
8C#XL	8eL	2r
8D	8d	.
8BBn	8f	.
8C#J	8eJ	.
!!LO:MO:ori
*	*clefC1	*
!!LO:MO:end
=146	=146	=146
8DL	8gL	1r
8Cn	8f#X	.
8BBn	8g#X	.
8AAJ	8aJ	.
8GG#XL	8bnL	.
8AA	8a	.
8FF#X	8cc	.
8GG#J	8bJ	.
=147	=147	=147
4AA	8ddL	2r
.	8cc	.
2A	8bn	.
.	8aJ	.
.	8bL	2ff
.	8cc	.
4G#X	8b	.
.	8ddJ	.
=148	=148	=148
4A	8ddL	4ee
.	8bn	.
4c	8cc	4aa
.	8ccJ	.
4F#X	8ccL	4dd#X
.	8a#X	.
4G#X	8b	4ddn
.	8bJ	.
!!LO:MO:ori
*clefC4	*	*
!!LO:MO:end
=149	=149	=149
4r	8bnL	4cc
.	8g#X	.
4A	8an	4ff
.	8aJ	.
4B-X	8aL	2b-ww
.	8gn	.
4c	8f	.
.	8eJ	.
=150	=150	=150
4r	8fL>	4a
.	8a	.
4d	8g	4b-
.	8fJ	.
4c	8eL	8ccL
.	8f	8b-J
4B-	8d	4cc
.	8eJ	.
!!LO:LB:g=original
=151	=151	=151
4r	8fL	4f
.	8a	.
8AL	8cc	[4ff
8GJ	8b-J	.
4A	4cc	8ffL]
.	.	8ee
4Bn	4r	8dd
.	.	8ffJ
=152	=152	=152
8cL	2r	4ee
8d	.	.
8c	.	8aaL
8BnJ	.	8gg#XJ
8AL	2cc	4aa
8c	.	.
8f#X	.	4dd#X
8aJ	.	.
=153	=153	=153
8aL	4bn	4ee
8f#X	.	.
8g	4ee	4gg
8gJ	.	.
8gL	4a#X	4cc#X
8e	.	.
8fn	4an	4dd
8fJ	.	.
=154	=154	=154
8fL	4g	4r
8d#X	.	.
8e	4cc	4ee
8eJ	.	.
8eL	2fww	4ff
8dn	.	.
8c	.	4gg
8BnJ	.	.
=155	=155	=155
8cL	4e	4r
8e	.	.
8d	4f	4aa
8cJ	.	.
8BnL	8gL	4gg
8c	8fJ	.
8A	4g	4ff
8BJ	.	.
=156	=156	=156
8cL	4c	4r
8d	.	.
8c	[4cc	8eeL
8B-XJ	.	8ddJ
4A	8ccL]	4ee
.	8b-	.
4d	8a	4ff#X
.	8ccJ	.
!!LO:LB:g=original
=157	=157	=157
4g	4b-	8ggL
.	.	8dd
4c	4a	8ee
.	.	8ff#XJ
4B-	4g	8ggL
.	.	8ff#
4A	4f#X	8aa
.	.	8ggJ
=158	=158	=158
2G	8gL	8bb-L
.	8fn	8aa
.	8e-X	8gg
.	8dJ	8ffJ
!!LO:MO:ori
*clefF4	*	*
!!LO:MO:end
8r	4c	8ee-XL
8B-L	.	8dd
8A	4r	8ee-
8GJ	.	8ee-J
!!LO:MO:ori
*	*clefC3	*
!!LO:MO:end
=159	=159	=159
4F	4r	8ee-XL
.	.	8cc#X
4B-	4d	8dd
.	.	8ddJ
4En	4G	8ddL
.	.	8bn
4E-X	4A	8ccn
.	.	8ccJ
=160	=160	=160
4D	4r	8ccL
.	.	8a
4G	4B-	8b-X
.	.	8b-J
2C	4c	8b-L
.	.	8a
.	4d	8g
.	.	8f#XJ
=161	=161	=161
4BB-	4r	8gL
.	.	8b-
4C	4e-X	8a
.	.	8gJ
8DL	4d	8f#XL
8CJ	.	8g
4D	4c	8e
.	.	8f#J
=162	=162	=162
2GG	4r	8gL
.	.	8dJ
.	8B-L	[4g
.	8AJ	.
2r	4B-	8gL]
.	.	8b-
.	4c	8a
.	.	8ccJ
!!LO:LB:g=original
=163	=163	=163
4r	8dL	[1b-
.	8e-X	.
8GL	8d	.
8AJ	8c#XJ	.
4G	8dL	.
.	8f	.
4C#X	8en	.
.	8gJ	.
=164	=164	=164
4D	8fL	4b-]
.	8eJ	.
[4d	[4f	8aL
.	.	8gJ
8dL]	8fL]	4a
8c	8e	.
8B-	8d	[4dd
8AJ	8fJ	.
=165	=165	=165
4.G	8eL	8ddL]
.	8f#XJ	8cc
.	[4g	8bn
8F	.	8ddJ
8EL	8gL]	8cc#XL
8D	8fn	8ddJ
8C#X	8e	[4ee
8B-J	8gJ	.
=166	=166	=166
4.A	8fL	8eeL]
.	8gJ	8dd
.	[4a	8cc#X
8G	.	8eeJ
8FL	8aL]	8ddL
8E	8g	8eeJ
8D	8f	[4ff
8cJ	8aJ	.
=167	=167	=167
4.Bn	8g#XL	8ffL]
.	8aJ	8ee
.	2bn	8dd
8A	.	8ffJ
8G#XL	.	8eeL
8BJ	.	8dd
4E	8aL	8cc#X
.	8g#J	8bnJ
=168	=168	=168
[1A	8aL	4cc#X
.	8e	.
.	8a	4ff
.	8aJ	.
.	8aL	8bnL
.	8f#X	8dd
.	8g	8cc#
.	8gJ	8eeJ
!!LO:LB:g=original
=169	=169	=169
1A]	8gL	4a
.	8e	.
.	8fn	8aaL
.	8dJ	8aaJ
.	8BnXL	8aaL
.	8d	8ff#X
.	8c#X	8gg
.	8eJ	8ggJ
=170	=170	=170
2r	4A	8ggL
.	.	8ee
.	8dL	8ffn
.	8cnJ	8ffJ
2D	4Bn	8ffL
.	.	8dd
.	[4B-X	8ee
.	.	8eeJ
=171	=171	=171
4C	8B-L]	4ee
.	8G#X	.
4F	8A	4a
.	8AJ	.
4BBn	8AL	4d
.	8F#X	.
4BB-X	8Gn	4e
.	8GJ	.
=172	=172	=172
4AA	8GL	4r
.	8E	.
4D	8Fn	4f
.	8FJ	.
2GGWW	8FL	4g
.	8E-X	.
.	8D	4a
.	8C#XJ	.
=173	=173	=173
4FF	8DL	4r
.	8F	.
4GG	8E	4b-
.	8DJ	.
8AAL	8C#XL	4a
8GGJ	8D	.
4AA	8BB-	4g
.	8C#J	.
!!LO:LB:g=original
=174	=174	=174
4DD	8DL	4r
.	8E	.
[4D/	8F	8fL
.	8GJ	8eJ
8DL]	4A	4f
8C	.	.
8BB-	4d	4g
8DJ	.	.
=175	=175	=175
4C	4F#X	8aL
.	.	8g
[4c	4A	8f#X
.	.	8aJ
8cL]	4d	4d
8B-	.	.
8A	4f#X	[4dd
8cJ	.	.
=176	=176	=176
4B-	4.g	8ddL]
.	.	8cc
[4BB-	.	8b-
.	8fn	8ddJ
8BB-L]	4e	4g
8AA	.	.
8GG	[4e-X	[4cc
8BB-J	.	.
=177	=177	=177
4AA	8e-L]	8ccL]
.	8d	8b-
[4A	8c	8a
.	8e-XJ	8ccJ
8AL]	4d	4b-
8G	.	.
8F#X	[4d	[4b-
8AJ	.	.
=178	=178	=178
4G	4d]	16b-LL]
.	.	16cc
.	.	16b-
.	.	16aJJ
8GL	8B-L	16gLL
.	.	16b-
8GJ	8B-J	16cc
.	.	16ddJJ
4G	4B-	16ee-XLL
.	.	16ff
.	.	16ee-
.	.	16ddJJ
8EL	8GL	16cc#XLL
.	.	16dd
8EJ	8GJ	16een
.	.	16ffJJ
!!LO:LB:g=original
=179	=179	=179
4E	4G	16ggLL
.	.	16aa
.	.	16gg
.	.	16ffJJ
8C#XL	8B-L	16eeLL
.	.	16ff
8C#J	8B-J	16gg
.	.	16aaJJ
4C#	4E	8bb-L
.	.	16aaL
.	.	16ggJJ
4r	4r	16ffLL
.	.	16ee
.	.	16dd
.	.	16cc#XJJ
=180	=180	=180
4r	8r	2.dd
.	8fL	.
4G#X	8f	.
.	8eJ	.
4A	8eL	.
.	8g	.
4AA	8g	4cc#X
.	8f#XJ	.
=181	=181	=181
[1D	8f#XL	4dd
.	8a	.
.	8a	4ccn
.	8gJ	.
.	4g	8bnL
.	.	8gg
.	4b-X	8gg
.	.	8ff#XJ
=182	=182	=182
2D]	4a	8ff#XL
.	.	8aa
.	4cc	8aa
.	.	8ggJ
2r	8b-L	8ggL
.	8aJ	8ffn
.	[4b-	8ee-X
.	.	8ddJ
=183	=183	=183
4r	8b-L]	4cc#X
.	8g#X	.
4AA	8a	4ff
.	8aJ	.
4DD	8aL	4bn
.	8f#X	.
4EE	8gn	4b-X
.	8gJ	.
!!LO:LB:g=original
=184	=184	=184
4r	8gL	4a
.	8e	.
4FF	8f	4dd
.	8fJ	.
4GG	8fL	2gWW
.	8e-X	.
4AA	8d	.
.	8c#XJ	.
=185	=185	=185
4r	8dL	4f
.	8f	.
4BB-	8en	4g
.	8dJ	.
4AA	8c#XL	8aL
.	8d	8gJ
4GG	8Bn	4a
.	8c#J	.
=186	=186	=186
4r	8dL	[1d
.	8B-X	.
8FFL	8A	.
8EEJ	8GJ	.
4FF	8AL	.
.	16dL	.
.	16cJJ	.
4GG	16B-LL	.
.	16AJ	.
.	8GJ	.
=187	=187	=187
1AA	4F	16dLL]
.	.	16Bn
.	.	16c#X
.	.	16dJJ
.	8EL	16eLL
.	.	16f
.	8DJ	16g
.	.	16eJJ
.	8EL	4.c#Xt
.	8FJ	.
.	[4G	.
.	.	8d
=188	=188	=188
2DD;	4G]	2d;y
.	4F#X;y	.
2r	2r	2r
==;<	==	==;
*-	*-	*-
!!!RDF**kern: > = above
!!!RDF**kern: < = below
!!!system-decoration: [(s1,s2,s3)]
!!!URL-pdf: https://vmirror.imslp.org/files/imglnks/usimg/8/88/IMSLP504269-PMLP05843-BGA-25.1.pdf#page=31 @{SMS1}, page 31
!!!URL-pdf: https://s9.imslp.org/files/imglnks/usimg/1/1d/IMSLP469177-PMLP5843-Bach,_J.S._-_The_Art_of_the_Fugue.pdf#page=39 @{SMS2}, page 39
!!!URL-youtube: https://www.youtube.com/watch?v=OMtjlaDEMdI&t=1671s Netherlands Bach Society/Malinowski
!!!URL-youtube: https://www.youtube.com/watch?v=N6sUlZa-IrU&t=1671s Netherlands Bach Society
!!!SMS: @{SMS1}
!!!SMS1: Bach-Gesellschaft Ausgabe, Band 25.1 Leipzig: Breitkopf und Härtel, 1878. Plate B.W. XXV (1).
!!!SMS2: Bach-Gesellschaft Ausgabe, Band 47 Leipzig: Breitkopf und Härtel, 1926. Plate B.W. XLVII.
!!!PED: Wilhelm Rust
!!!PED-ODT: 1822-1892
!!!ONB: Die Kunst der Fuge nach dem Berliner Autograph in Anordnung und Lesarten
!!!ENC: Craig Stuart Sapp
!!!END: 2024/03/22
!!!EED: Craig Stuart Sapp
!!!EEV: 2024/03/28
!!!title: @{OPR} (@{SCA}), @{OTL}
!!!filter-modern: modori -m | autostem -r
